X:172
T:Willie Coleman's
Z: id:dc-jig-148
M:6/8
L:1/8
K:G Major
A|B2G AGE|GED GBd|edB dgb|age dBA|!
B2G AGE|GED GBd|edB dBA|BGF G2:|!
d|gfg edB|dgb age|gfg edB|GBd e2f|!
gfg edB|dgb age|d^cd gdB|AGF G2:|!

